!!!COM: Gabriel Faure/
!!!CNT: Francais
!!!TXO: Francais
!!!OTL: Rencontre (Poe2me d'un jour.)
!!!OPS: Op. 21
!!!ONM: No. 1
!!!LYR: Charles Grandmougin
!!!ENC: Jacob Pegg
!!!YOR: Album of Twenty Songs (Vingt Me/lodies,) Volume II
!!!YOR: Edward B. Marks Music Corporation, RCA Building, Radio
!!!YOR: City, New York 20, N.Y.
!!!ODT: 1878/
!!NB: Vocal melody and text only encoded.
!!NB: First instance of melodic material only encoded.
**kern	**silbe
*clef G2	*
*k[b-e-a-d-g-]	*
*M4/4	*
*MM72	*
!!Andante (seems slow for an andante)
!!created: 2/6/04 14:42
!!proofed and posted: 2/6/04 17:01
!!edit time: 38 min.
=1	=1
1r	.
=2	=2
4r	.
{8dd-	{J'e/-
8cc	-tais
4b-	triste
8a-	et
8g-	pen-
=3	=3
4.f	-sif
8f	Quand
8e-	je
8f	t'ai
8g-	ren-
8b-	-con-
=4	=4
(4.dd-	-tre/-
8cc)	|
4b-}	-e:}
8r	.
{8b-	{Je
=5	=5
8ee-	sens
8ee-	moins,
8dd-	au-
8cc	-jour-
4.cc	-d'hui,
8b-	mon
=6	=6
8a-	obs-
8a-	-ti-
8b-	-ne/
8b-	tour-
[2cc	-ment.
=7	=7
4cc]}	|}
{8dd-	{O^
8cc	dis~
4b-	~moi,
8a-	Se-
8g-	-rais~
=8	=8
4.f	~tu
8f	la
8e-	femme
8f	i-
8g-	-nes-
8b-	-pe/-
=9	=9
(4.dd-	-re/-
8cc)	|
4b-}	-e}
{8b-	{Et
8cc	le
=10	=10
4dd-	re^ve
8ee-	i-
8ff	-de/-
4gn	-al
8a-	pour-
8b-	-sui-
=11	=11
2a-	-vi
4.en	vai-
8en	-ne-
=12	=12
4f}	-mant?}
8r	.
{8a-	{O
8b-	pas-
8cc	-sante
8dd-	aux
8b-	doux
=13	=13
4.cc	yeux
8a-	Se-
8b-	-rais~
8cc	~tu
8dd-	donc
8b-	l'a-
=14	=14
4cc	-mi-
16cc}	-e}
16r	.
{8a-	{Qui
8b-	ren-
8cc	-drait
8dd-	le
8ee-	bon-
=15	=15
4ff	-heur
8ee-	au
8dd-	po-
4dd-	-e\te
8cc	i-
8b-	-so-
=16	=16
4a-}	-le/,}
8r	.
{8cc	{Et
8dd-	vas~
8ee-	~tu
8ff	ray-
8dd-	-on-
=17	=17
4.ee-	-ner,
8cc	Sur
8dd-	mon
8ee-	a^me
8ff	af-
8dd-	-fer-
=18	=18
4ee-	-mi-
8ee-}	-e,}
{8cc	{Com-
8dd-	-me
8ee-	le
8ff	ciel
8gg-	na-
=19	=19
[2aa-	-tal
(8aa-]	|
8gg-)	|
8ee-	sur
8cc-	un
=20	=20
2b-	coeur
4.ccn	d'ex-
8dd-	-i-
=21	=21
1dd-}	-le/?}
!! a single, melodically equivalent strophe follows.
*-	*-
